logos/circlepanda/circlepanda.svg

<svg width="296" height="63" viewBox="0 0 296 63" fill="none" xmlns="http://www.w3.org/2000/svg">
<path fill-rule="evenodd" clip-rule="evenodd" d="M31.5 63C48.897 63 63 48.897 63 31.5C63 14.103 48.897 0 31.5 0C14.103 0 0 14.103 0 31.5C0 48.897 14.103 63 31.5 63ZM20 26.0001C23.3138 26.0001 26.0001 23.3138 26.0001 20C26.0001 18.4996 25.4493 17.1278 24.5389 16.0757C26.9804 14.7518 29.7773 14 32.7498 14C35.3208 14 37.7603 14.5624 39.9522 15.5709C38.7524 16.668 37.9999 18.2462 37.9999 20C37.9999 23.3138 40.6862 26.0001 44 26.0001C45.7538 26.0001 47.332 25.2476 48.429 24.0478C49.4376 26.2397 50 28.6792 50 31.2501C50 40.7771 42.2768 48.5003 32.7498 48.5003C23.2229 48.5003 15.4997 40.7771 15.4997 31.2501C15.4997 29.0427 15.9144 26.9321 16.67 24.9919C17.6227 25.6288 18.768 26.0001 20 26.0001ZM48.429 24.0478C46.7089 20.3092 43.6908 17.2911 39.9522 15.5709C41.0193 14.5952 42.4401 14 44 14C47.3137 14 50 16.6863 50 20C50 21.5599 49.4048 22.9807 48.429 24.0478ZM24.5389 16.0757C20.9685 18.0118 18.158 21.1713 16.67 24.9919C15.0601 23.9159 14 22.0818 14 20C14 16.6863 16.6863 14 20 14C21.8133 14 23.4387 14.8044 24.5389 16.0757Z" fill="black"/>
<path d="M90.516 23.045C88.47 21.461 85.896 20.504 83.124 20.504C76.524 20.504 71.145 25.883 71.145 32.483C71.145 39.083 76.524 44.462 83.124 44.462C86.028 44.462 88.701 43.406 90.78 41.69L87.81 38.291C83.454 41.591 76.293 38.984 76.293 32.483C76.293 26.279 83.058 23.573 87.546 26.477L90.516 23.045ZM104.594 25.487V20.867H95.0571V25.487H97.5321V39.38H95.0571V44H104.594V39.38H102.152V25.487H104.594ZM108.552 20.834V43.967H113.172V29.711L115.482 34.694V34.727L119.805 44H124.722L119.904 34.1C122.775 33.605 124.59 30.602 124.59 27.797C124.59 23.969 121.488 20.834 117.66 20.834H108.552ZM115.68 25.454H117.66C118.947 25.454 119.97 26.51 119.97 27.797C119.97 28.985 119.079 29.942 117.957 30.074L115.68 25.454ZM146.558 23.045C144.512 21.461 141.938 20.504 139.166 20.504C132.566 20.504 127.187 25.883 127.187 32.483C127.187 39.083 132.566 44.462 139.166 44.462C142.07 44.462 144.743 43.406 146.822 41.69L143.852 38.291C139.496 41.591 132.335 38.984 132.335 32.483C132.335 26.279 139.1 23.573 143.588 26.477L146.558 23.045ZM155.719 20.867H151.099V43.967H164.332V39.38H155.719V20.867ZM183.397 20.867H167.986V44H183.298V39.38H172.606V34.364H181.516V29.744H172.606V25.487H183.397V20.867ZM187.61 20.867V44H192.23V34.76H195.101C198.929 34.76 202.031 31.658 202.031 27.83C202.031 24.002 198.929 20.867 195.101 20.867H187.61ZM192.23 30.14V25.487H195.101C196.355 25.487 197.411 26.543 197.411 27.83C197.411 29.117 196.355 30.14 195.101 30.14H192.23ZM214.838 20.867H213.485L202.331 42.779V44H225.2V42.779L214.838 20.867ZM209.228 39.38L214.046 29.942L218.468 39.38H209.228ZM245.678 44L232.676 30.503V44H228.056V20.867H229.508L242.279 33.803V20.867H246.899V44H245.678ZM251.195 20.867V43.967H253.076V44H257.729C259.28 44 260.798 43.703 262.217 43.076C263.603 42.515 264.824 41.657 265.88 40.601C266.969 39.545 267.794 38.324 268.355 36.938C268.982 35.519 269.279 34.001 269.279 32.417C269.279 30.866 268.982 29.348 268.355 27.929C267.794 26.543 266.969 25.322 265.88 24.233C264.824 23.177 263.603 22.352 262.217 21.758C260.798 21.164 259.28 20.867 257.729 20.867H251.195ZM257.729 25.487C258.917 25.487 260.039 25.784 260.996 26.312L255.815 37.565V25.487H257.729ZM257.399 39.38L262.811 27.698C263.966 28.919 264.659 30.602 264.659 32.417C264.659 36.245 261.557 39.38 257.729 39.38H257.399ZM283.061 20.867H281.708L270.554 42.779V44H293.423V42.779L283.061 20.867ZM277.451 39.38L282.269 29.942L286.691 39.38H277.451Z" fill="black"/>
</svg>

<svg width="296" height="63" fill="none" xmlns="http://www.w3.org/2000/svg">
  <path fill-rule="evenodd" clip-rule="evenodd" d="M31.5 63C48.897 63 63 48.897 63 31.5S48.897 0 31.5 0 0 14.103 0 31.5 14.103 63 31.5 63zM20 26a6 6 0 004.539-9.924A17.173 17.173 0 0132.749 14c2.572 0 5.011.562 7.203 1.57a6 6 0 108.477 8.477A17.185 17.185 0 0150 31.25c0 9.527-7.723 17.25-17.25 17.25-9.527 0-17.25-7.723-17.25-17.25 0-2.207.414-4.318 1.17-6.258A5.971 5.971 0 0020 26zm28.429-1.952a17.317 17.317 0 00-8.477-8.477 6 6 0 018.477 8.477zm-23.89-7.972a17.312 17.312 0 00-7.869 8.916 6 6 0 117.869-8.916z" fill="#000"/>
  <path d="M90.516 23.045a12.067 12.067 0 00-7.392-2.541c-6.6 0-11.979 5.379-11.979 11.979s5.379 11.979 11.979 11.979c2.904 0 5.577-1.056 7.656-2.772l-2.97-3.399c-4.356 3.3-11.517.693-11.517-5.808 0-6.204 6.765-8.91 11.253-6.006l2.97-3.432zm14.078 2.442v-4.62h-9.537v4.62h2.475V39.38h-2.475V44h9.537v-4.62h-2.442V25.487h2.442zm3.958-4.653v23.133h4.62V29.711l2.31 4.983v.033L119.805 44h4.917l-4.818-9.9c2.871-.495 4.686-3.498 4.686-6.303 0-3.828-3.102-6.963-6.93-6.963h-9.108zm7.128 4.62h1.98c1.287 0 2.31 1.056 2.31 2.343a2.288 2.288 0 01-2.013 2.277l-2.277-4.62zm30.878-2.409a12.067 12.067 0 00-7.392-2.541c-6.6 0-11.979 5.379-11.979 11.979s5.379 11.979 11.979 11.979c2.904 0 5.577-1.056 7.656-2.772l-2.97-3.399c-4.356 3.3-11.517.693-11.517-5.808 0-6.204 6.765-8.91 11.253-6.006l2.97-3.432zm9.161-2.178h-4.62v23.1h13.233V39.38h-8.613V20.867zm27.678 0h-15.411V44h15.312v-4.62h-10.692v-5.016h8.91v-4.62h-8.91v-4.257h10.791v-4.62zm4.213 0V44h4.62v-9.24h2.871a6.93 6.93 0 006.93-6.93c0-3.828-3.102-6.963-6.93-6.963h-7.491zm4.62 9.273v-4.653h2.871c1.254 0 2.31 1.056 2.31 2.343a2.317 2.317 0 01-2.31 2.31h-2.871zm22.608-9.273h-1.353l-11.154 21.912V44H225.2v-1.221l-10.362-21.912zm-5.61 18.513l4.818-9.438 4.422 9.438h-9.24zm36.45 4.62l-13.002-13.497V44h-4.62V20.867h1.452l12.771 12.936V20.867h4.62V44h-1.221zm5.517-23.133v23.1h1.881V44h4.653c1.551 0 3.069-.297 4.488-.924 1.386-.561 2.607-1.419 3.663-2.475a10.586 10.586 0 002.475-3.663c.627-1.419.924-2.937.924-4.521 0-1.551-.297-3.069-.924-4.488-.561-1.386-1.386-2.607-2.475-3.696a11.584 11.584 0 00-3.663-2.475 11.586 11.586 0 00-4.488-.891h-6.534zm6.534 4.62c1.188 0 2.31.297 3.267.825l-5.181 11.253V25.487h1.914zm-.33 13.893l5.412-11.682c1.155 1.221 1.848 2.904 1.848 4.719 0 3.828-3.102 6.963-6.93 6.963h-.33zm25.662-18.513h-1.353l-11.154 21.912V44h22.869v-1.221l-10.362-21.912zm-5.61 18.513l4.818-9.438 4.422 9.438h-9.24z" fill="#000"/>
</svg>
